assets/Person mage/Dark/Flat/person_mage_flat_dark.svg

<svg width="32" height="32" viewBox="0 0 32 32" fill="none" xmlns="http://www.w3.org/2000/svg">
<path d="M10.2 10.11L10.02 10.46H21.92L21.75 10.13C21.5558 9.75036 21.3274 9.25471 21.0695 8.69533C20.5539 7.57684 19.9208 6.20335 19.209 4.99209L21.449 5.00261C22.0907 5.00261 22.377 4.17261 21.8636 3.78261C20 2.5 18.1719 1.99997 15.97 1.99997C13.9802 1.99997 12.1312 5.98952 10.9117 8.62089C10.6419 9.20302 10.4029 9.71868 10.2 10.11Z" fill="#0074BA"/>
<path d="M9.7901 10.15L9.6001 10.53H22.3401L22.1601 10.17C21.8401 9.55 21.4401 8.99 20.9701 8.5H10.9701C10.5101 8.99 10.1101 9.54 9.7901 10.15Z" fill="#533566"/>
<path d="M22.9479 18.4996L23.5522 18.5C26 18.5 27.99 16.4843 28 14.005C28 11.5258 26.01 9.51008 23.5622 9.51008L8.43781 9.5C5.99005 9.5 4 11.5157 4 13.995C4 16.4742 5.99005 18.4899 8.42786 18.4899L9.07323 18.4904C9.00132 18.6132 8.9388 18.7434 8.88677 18.8801C8.50606 19.8801 8.76654 20.9901 9.55802 21.7101L9.82852 21.9501C9.44781 22.2201 9.08714 22.5101 8.74651 22.8301C7.44408 24.0501 6.4322 25.6001 5.87116 27.3801L5.8411 27.4601C5.58062 28.2801 5.38024 29.15 5.25 30H26.75C26.6198 29.14 26.4294 28.2601 26.1689 27.4201C25.5979 25.6101 24.576 24.0301 23.2435 22.8001C22.9129 22.4901 22.5522 22.2101 22.1915 21.9401L22.452 21.7001C23.2435 20.9801 23.504 19.8701 23.1233 18.8701C23.0739 18.7405 23.0152 18.6168 22.9479 18.4996Z" fill="#00A6ED"/>
<path d="M9.06489 18H22.9351C25.1758 18 27 16.4364 27 14.5104C27 12.574 25.1857 11.0104 22.9351 11.0104L9.06489 11C6.82424 11 5 12.5636 5 14.5C5 16.4364 6.81433 18 9.06489 18Z" fill="#0074BA"/>
<path d="M15.9978 18.15L20.6788 18.18C21.6548 18.18 22.1229 19.39 21.3958 20.05L15.9978 24.98L10.5997 20.05C9.88264 19.39 10.3408 18.19 11.3168 18.18L15.9978 18.15Z" fill="#0074BA"/>
<path d="M17.1741 21.0712H16.1218H15.0696C14.7927 21.0712 14.5158 21.0509 14.25 21L15.6013 23.7379C15.7785 24.0941 16.3323 24.0839 16.4984 23.7277L17.75 21.0407C17.5728 21.0611 17.3734 21.0712 17.1741 21.0712Z" fill="#452829"/>
<path d="M10.1899 17.34L10.1999 14.67C11.3099 14.65 12.4099 14.64 13.5199 14.65V20.03L11.6399 19.38C10.7699 19.08 10.1899 18.26 10.1899 17.34Z" fill="#D3D3D3"/>
<path d="M18.49 20.03V14.73C19.5999 14.76 20.7098 14.8 21.8198 14.84L21.82 17.34C21.82 18.26 21.24 19.08 20.37 19.38L18.49 20.03Z" fill="#D3D3D3"/>
<path d="M12.5 14.95C12.5 15.7784 11.8284 16.45 11 16.45C10.1716 16.45 9.5 15.7784 9.5 14.95C9.5 14.1215 10.1716 13.45 11 13.45C11.8284 13.45 12.5 14.1215 12.5 14.95Z" fill="#4E3233"/>
<path d="M22.5 14.95C22.5 15.7784 21.8284 16.45 21 16.45C20.1716 16.45 19.5 15.7784 19.5 14.95C19.5 14.1215 20.1716 13.45 21 13.45C21.8284 13.45 22.5 14.1215 22.5 14.95Z" fill="#4E3233"/>
<path d="M21.2384 13.6188C21.2384 13.6089 21.2384 13.6089 21.2384 13.6188L21.2486 13.5099C21.2895 12.4406 20.411 11.5 19.2976 11.5H12.709C11.5547 11.5 10.6558 12.4604 10.7579 13.5693L11.0644 18.1337C11.33 20.0644 13.0256 21.5 15.038 21.5H16.0084H16.9686C18.9809 21.5 20.6766 20.0545 20.9422 18.1337L21.2384 13.6188Z" fill="#573739"/>
<path d="M16 18.3705C15.4461 18.3705 14.9333 18.2405 14.4922 18.0205C14.3486 17.9405 14.1845 18.1105 14.2768 18.2505C14.6461 18.8005 15.2718 19.1605 16 19.1605C16.718 19.1605 17.3539 18.8005 17.7232 18.2505C17.8155 18.1105 17.6514 17.9505 17.5078 18.0205C17.0667 18.2405 16.5539 18.3705 16 18.3705Z" fill="#290118"/>
<path d="M12.1899 14.8C12.3399 14.19 12.8999 13.73 13.5599 13.73C14.2499 13.73 14.8199 14.22 14.9499 14.87C14.9799 15.01 14.8699 15.14 14.7199 15.14H12.4599C12.2799 15.14 12.1499 14.97 12.1899 14.8Z" fill="white"/>
<path d="M19.7801 14.8C19.6301 14.19 19.0701 13.73 18.4101 13.73C17.7201 13.73 17.1501 14.22 17.0201 14.87C16.9901 15.01 17.1001 15.14 17.2501 15.14H19.5101C19.6901 15.14 19.8201 14.97 19.7801 14.8Z" fill="white"/>
<path d="M12.8701 14.9C12.8701 14.4 13.2701 14 13.7701 14C14.2701 14 14.6801 14.4 14.6701 14.9C14.6701 14.98 14.6601 15.06 14.6401 15.14H12.9001C12.8801 15.06 12.8701 14.98 12.8701 14.9Z" fill="#7D4533"/>
<path d="M19.1 14.9C19.1 14.4 18.7 14 18.2 14C17.7 14 17.29 14.4 17.3 14.9C17.3 14.98 17.31 15.06 17.33 15.14H19.07C19.09 15.06 19.1 14.98 19.1 14.9Z" fill="#7D4533"/>
<path d="M13.77 14.38C14.06 14.38 14.29 14.61 14.29 14.9C14.29 14.99 14.27 15.07 14.22 15.14H13.31C13.27 15.07 13.25 14.99 13.25 14.9C13.25 14.61 13.48 14.38 13.77 14.38Z" fill="black"/>
<path d="M18.1999 14.38C17.9099 14.38 17.6799 14.61 17.6799 14.9C17.6799 14.99 17.6999 15.07 17.7499 15.14H18.6599C18.6999 15.07 18.7199 14.99 18.7199 14.9C18.7199 14.61 18.4899 14.38 18.1999 14.38Z" fill="black"/>
<path d="M13.62 14.54C13.62 14.6284 13.5484 14.7 13.46 14.7C13.3717 14.7 13.3 14.6284 13.3 14.54C13.3 14.4516 13.3717 14.38 13.46 14.38C13.5484 14.38 13.62 14.4516 13.62 14.54Z" fill="white"/>
<path d="M18.08 14.54C18.08 14.6284 18.0084 14.7 17.92 14.7C17.8316 14.7 17.76 14.6284 17.76 14.54C17.76 14.4516 17.8316 14.38 17.92 14.38C18.0084 14.38 18.08 14.4516 18.08 14.54Z" fill="white"/>
<path d="M15.67 14.82L15.15 16.51C15.04 16.86 15.3 17.21 15.67 17.21H16.45C16.81 17.21 17.07 16.86 16.97 16.51L16.45 14.82C16.32 14.45 15.79 14.45 15.67 14.82Z" fill="#3D2123"/>
<path d="M12.34 12.8546C12.21 12.954 12.1852 13.14 12.2846 13.27C12.3838 13.3997 12.5691 13.4248 12.6991 13.3262L12.7016 13.3243C12.7047 13.3222 12.7101 13.3183 12.718 13.3129C12.7337 13.3022 12.7588 13.2858 12.7926 13.2658C12.8604 13.2258 12.9623 13.172 13.0927 13.1212C13.3537 13.0194 13.7241 12.9314 14.1647 12.9843C14.3273 13.0038 14.4748 12.8878 14.4943 12.7253C14.5138 12.5628 14.3979 12.4152 14.2354 12.3957C13.676 12.3286 13.2064 12.4406 12.8774 12.5688C12.7128 12.633 12.5822 12.7017 12.4912 12.7554C12.4457 12.7823 12.4098 12.8056 12.3844 12.8229L12.34 12.8546Z" fill="#9B9B9B"/>
<path d="M19.2711 13.3263C19.4011 13.4247 19.5863 13.3997 19.6855 13.27C19.8348 13.0748 19.7238 12.8819 19.5857 12.8229C19.5603 12.8056 19.5245 12.7823 19.4789 12.7554C19.3879 12.7017 19.2573 12.633 19.0927 12.5688C18.7637 12.4406 18.2941 12.3286 17.7347 12.3957C17.5722 12.4152 17.4563 12.5628 17.4758 12.7253C17.4953 12.8878 17.6428 13.0038 17.8054 12.9843C18.2461 12.9314 18.6164 13.0194 18.8774 13.1212C19.0078 13.172 19.1097 13.2258 19.1775 13.2658L19.2685 13.3243L19.2711 13.3263Z" fill="#9B9B9B"/>
<path d="M18.7 12.29H20.8826C20.5326 11.82 20.16 11.5 19.53 11.5H17C17.42 11.99 18.04 12.29 18.7 12.29Z" fill="#D3D3D3"/>
<path d="M27 23C27.5545 23 28 23.4054 28 23.9099V26H26V23.9099C26 23.4054 26.4455 23 27 23Z" fill="#422426"/>
<path d="M27.25 5.30001C27.05 5.19001 26.8 5.34001 26.8 5.57001V7.19001C26.8 7.63001 26.44 8.00001 26 7.99001C25.58 7.98001 25.23 7.64001 25.23 7.21001V5.57001C25.23 5.34001 24.98 5.19001 24.78 5.30001C23.97 5.74001 23.42 6.59001 23.41 7.57001C23.4 8.58001 23.99 9.47001 24.84 9.91001C24.94 9.96001 25 10.06 25 10.17V26.08C25 26.65 25.47 27.12 26.04 27.12C26.61 27.12 27 26.65 27 26.08V10.17C27 10.06 27.14 9.94001 27.24 9.89001C28.06 9.45001 28.62 8.59001 28.62 7.59001C28.62 6.60001 28.07 5.74001 27.25 5.30001Z" fill="#F3AD61"/>
<path d="M26 8.96997C27.5188 8.96997 28.75 7.73875 28.75 6.21997C28.75 4.70119 27.5188 3.46997 26 3.46997C24.4812 3.46997 23.25 4.70119 23.25 6.21997C23.25 7.73875 24.4812 8.96997 26 8.96997Z" fill="#00D1ED"/>
<path d="M27.69 4.64002C28.03 5.10002 28 5.70002 27.62 5.98002C27.24 6.26002 26.66 6.11002 26.32 5.65002C25.97 5.19002 26 4.59002 26.38 4.31002C26.76 4.03002 27.35 4.18002 27.69 4.64002Z" fill="#B4F6FC"/>
<g opacity="0.5">
<path d="M17.9402 15.6185C17.829 15.5024 17.6447 15.4985 17.5287 15.6097C17.4126 15.721 17.4087 15.9052 17.5199 16.0213L17.9087 16.3123C18.1493 16.4506 18.5016 16.591 18.9401 16.591C19.1008 16.591 19.2312 16.4607 19.2312 16.2999C19.2312 16.1391 19.1008 16.0088 18.9401 16.0088C18.6285 16.0088 18.3758 15.9092 18.1989 15.8075C18.1127 15.7528 17.9402 15.6384 17.9402 15.6185Z" fill="#341A1C"/>
<path d="M14.5814 15.6097C14.4654 15.4986 14.2812 15.5024 14.17 15.6183L14.16 15.6279C14.1502 15.6371 14.134 15.6517 14.1118 15.6699C14.0672 15.7064 13.9994 15.7568 13.9112 15.8075C13.7343 15.9092 13.4816 16.0088 13.17 16.0088C13.0092 16.0088 12.8789 16.1391 12.8789 16.2999C12.8789 16.4607 13.0092 16.591 13.17 16.591C13.6084 16.591 13.9607 16.4506 14.2013 16.3123C14.3218 16.243 14.4159 16.1734 14.4811 16.12L14.5885 16.023L14.5894 16.0221L14.5902 16.0213C14.7014 15.9052 14.6975 15.721 14.5814 15.6097Z" fill="#341A1C"/>
</g>
<path d="M23.5005 25.2754C23.5095 24.8515 23.8334 24.5 24.2024 24.5H27.2081C27.649 24.5 28 24.9032 28 25.4098V29.0902C28 29.5968 27.649 30 27.2081 30H24.2024C23.8334 30 23.5095 29.6692 23.5005 29.2453C23.4915 28.9558 23.6174 28.7077 23.8064 28.563C23.6264 28.4286 23.5005 28.1805 23.5005 27.9117C23.5005 27.6429 23.6264 27.4051 23.8064 27.2603C23.6264 27.1259 23.5005 26.8778 23.5005 26.609C23.5005 26.3402 23.6264 26.1024 23.8064 25.9577C23.6174 25.813 23.4915 25.5545 23.5005 25.2754Z" fill="#573739"/>
</svg>

<svg xmlns="http://www.w3.org/2000/svg" width="32" height="32" fill="none"><path fill="#0074BA" d="m10.2 10.11-.18.35h11.9l-.17-.33c-.194-.38-.423-.875-.68-1.435-.516-1.118-1.15-2.492-1.861-3.703l2.24.01c.642 0 .928-.83.415-1.22C20 2.5 18.172 2 15.97 2c-1.99 0-3.839 3.99-5.058 6.62-.27.583-.51 1.099-.712 1.49Z"/><path fill="#533566" d="m9.79 10.15-.19.38h12.74l-.18-.36a7.13 7.13 0 0 0-1.19-1.67h-10c-.46.49-.86 1.04-1.18 1.65Z"/><path fill="#00A6ED" d="M22.948 18.5h.604C26 18.5 27.99 16.484 28 14.005c0-2.48-1.99-4.495-4.438-4.495L8.438 9.5C5.99 9.5 4 11.516 4 13.995c0 2.48 1.99 4.495 4.428 4.495h.645a2.604 2.604 0 0 0-.186.39c-.38 1-.12 2.11.671 2.83l.27.24a10.602 10.602 0 0 0-3.957 5.43l-.03.08c-.26.82-.46 1.69-.591 2.54h21.5c-.13-.86-.32-1.74-.581-2.58a10.63 10.63 0 0 0-2.925-4.62c-.331-.31-.692-.59-1.052-.86l.26-.24a2.566 2.566 0 0 0 .671-2.83 2.611 2.611 0 0 0-.175-.37Z"/><path fill="#0074BA" d="M9.065 18h13.87C25.175 18 27 16.436 27 14.51c0-1.936-1.814-3.5-4.065-3.5L9.065 11C6.825 11 5 12.564 5 14.5S6.814 18 9.065 18ZM15.998 18.15l4.68.03c.977 0 1.445 1.21.718 1.87l-5.398 4.93-5.398-4.93c-.717-.66-.26-1.86.717-1.87l4.68-.03Z"/><path fill="#452829" d="M17.174 21.071H15.07c-.277 0-.554-.02-.82-.071l1.351 2.738c.177.356.731.346.897-.01l1.252-2.687c-.177.02-.377.03-.576.03Z"/><path fill="#D3D3D3" d="m10.19 17.34.01-2.67c1.11-.02 2.21-.03 3.32-.02v5.38l-1.88-.65c-.87-.3-1.45-1.12-1.45-2.04ZM18.49 20.03v-5.3c1.11.03 2.22.07 3.33.11v2.5c0 .92-.58 1.74-1.45 2.04l-1.88.65Z"/><path fill="#4E3233" d="M12.5 14.95a1.5 1.5 0 1 1-3 0 1.5 1.5 0 0 1 3 0ZM22.5 14.95a1.5 1.5 0 1 1-3 0 1.5 1.5 0 0 1 3 0Z"/><path fill="#573739" d="M21.238 13.619c0-.01 0-.01 0 0l.01-.11a1.957 1.957 0 0 0-1.95-2.009h-6.589c-1.154 0-2.053.96-1.951 2.07l.306 4.564c.266 1.93 1.962 3.366 3.974 3.366h1.93c2.013 0 3.709-1.445 3.974-3.366l.296-4.515Z"/><path fill="#290118" d="M16 18.37c-.554 0-1.067-.13-1.508-.35-.143-.08-.308.09-.215.23.37.55.995.91 1.723.91a2.07 2.07 0 0 0 1.723-.91c.093-.14-.072-.3-.215-.23-.441.22-.954.35-1.508.35Z"/><path fill="#fff" d="M12.19 14.8c.15-.61.71-1.07 1.37-1.07.69 0 1.26.49 1.39 1.14.03.14-.08.27-.23.27h-2.26c-.18 0-.31-.17-.27-.34ZM19.78 14.8c-.15-.61-.71-1.07-1.37-1.07-.69 0-1.26.49-1.39 1.14-.03.14.08.27.23.27h2.26c.18 0 .31-.17.27-.34Z"/><path fill="#7D4533" d="M12.87 14.9c0-.5.4-.9.9-.9s.91.4.9.9c0 .08-.01.16-.03.24H12.9a.986.986 0 0 1-.03-.24ZM19.1 14.9c0-.5-.4-.9-.9-.9s-.91.4-.9.9c0 .08.01.16.03.24h1.74c.02-.08.03-.16.03-.24Z"/><path fill="#000" d="M13.77 14.38c.29 0 .52.23.52.52 0 .09-.02.17-.07.24h-.91a.516.516 0 0 1 .46-.76ZM18.2 14.38c-.29 0-.52.23-.52.52 0 .09.02.17.07.24h.91a.516.516 0 0 0-.46-.76Z"/><path fill="#fff" d="M13.62 14.54a.16.16 0 1 1-.32 0 .16.16 0 0 1 .32 0ZM18.08 14.54a.16.16 0 1 1-.32 0 .16.16 0 0 1 .32 0Z"/><path fill="#3D2123" d="m15.67 14.82-.52 1.69c-.11.35.15.7.52.7h.78c.36 0 .62-.35.52-.7l-.52-1.69c-.13-.37-.66-.37-.78 0Z"/><path fill="#9B9B9B" d="M12.34 12.855a.296.296 0 0 0 .36.471l.002-.002.016-.011a2.084 2.084 0 0 1 .375-.192c.26-.102.631-.19 1.072-.137a.296.296 0 0 0 .07-.588 2.81 2.81 0 0 0-1.85.427l-.045.032ZM19.271 13.326c.13.099.315.074.415-.056a.282.282 0 0 0-.1-.447 2.68 2.68 0 0 0-.493-.254 2.81 2.81 0 0 0-1.358-.173.296.296 0 0 0 .07.588 2.216 2.216 0 0 1 1.372.282l.091.058.003.002Z"/><path fill="#D3D3D3" d="M18.7 12.29h2.183c-.35-.47-.723-.79-1.353-.79H17c.42.49 1.04.79 1.7.79Z"/><path fill="#422426" d="M27 23c.555 0 1 .405 1 .91V26h-2v-2.09c0-.505.445-.91 1-.91Z"/><path fill="#F3AD61" d="M27.25 5.3c-.2-.11-.45.04-.45.27v1.62c0 .44-.36.81-.8.8a.786.786 0 0 1-.77-.78V5.57c0-.23-.25-.38-.45-.27-.81.44-1.36 1.29-1.37 2.27-.01 1.01.58 1.9 1.43 2.34.1.05.16.15.16.26v15.91c0 .57.47 1.04 1.04 1.04.57 0 .96-.47.96-1.04V10.17c0-.11.14-.23.24-.28a2.605 2.605 0 0 0 .01-4.59Z"/><path fill="#00D1ED" d="M26 8.97a2.75 2.75 0 1 0 0-5.5 2.75 2.75 0 0 0 0 5.5Z"/><path fill="#B4F6FC" d="M27.69 4.64c.34.46.31 1.06-.07 1.34s-.96.13-1.3-.33c-.35-.46-.32-1.06.06-1.34s.97-.13 1.31.33Z"/><g fill="#341A1C" opacity=".5"><path d="M17.94 15.618a.291.291 0 1 0-.42.403l.389.291c.24.139.593.279 1.031.279a.291.291 0 0 0 0-.582c-.312 0-.564-.1-.741-.202-.086-.054-.259-.169-.259-.189ZM14.581 15.61a.291.291 0 0 0-.411.008l-.01.01a1.497 1.497 0 0 1-.249.18c-.177.101-.43.2-.741.2a.291.291 0 1 0 0 .583 2.066 2.066 0 0 0 1.311-.471l.107-.097h.001l.001-.002a.291.291 0 0 0-.009-.411Z"/></g><path fill="#573739" d="M23.5 25.275c.01-.423.333-.775.702-.775h3.006c.441 0 .792.403.792.91v3.68c0 .507-.351.91-.792.91h-3.006c-.369 0-.693-.33-.702-.755a.82.82 0 0 1 .306-.682.824.824 0 0 1-.306-.651.84.84 0 0 1 .306-.652.824.824 0 0 1-.306-.651.84.84 0 0 1 .306-.651.834.834 0 0 1-.306-.683Z"/></svg>
